static/img/kroki/d32865f8822b09eaba520bec0cd04e26.svg

<?xml version="1.0" encoding="us-ascii" standalone="no"?><svg xmlns="http://www.w3.org/2000/svg" xmlns:xlink="http://www.w3.org/1999/xlink" contentStyleType="text/css" height="374px" preserveAspectRatio="none" style="width:380px;height:374px;" version="1.1" viewBox="0 0 380 374" width="380px" zoomAndPan="magnify"><defs/><g><!--class azure_sql_server_virtual_network_rule--><g id="elem_azure_sql_server_virtual_network_rule"><rect codeLine="23" fill="#3D176E" height="39.7891" id="azure_sql_server_virtual_network_rule" rx="2.5" ry="2.5" style="stroke:#000D19;stroke-width:0.5;" width="366" x="7" y="328.58"/><ellipse cx="22" cy="348.4745" fill="#ADD1B2" rx="11" ry="11" style="stroke:#181818;stroke-width:1.0;"/><path d="M24.9688,354.1152 Q24.3906,354.412 23.75,354.5527 Q23.1094,354.7089 22.4063,354.7089 Q19.9063,354.7089 18.5781,353.0683 Q17.2656,351.412 17.2656,348.287 Q17.2656,345.162 18.5781,343.5058 Q19.9063,341.8495 22.4063,341.8495 Q23.1094,341.8495 23.75,342.0058 Q24.4063,342.162 24.9688,342.4589 L24.9688,345.1777 Q24.3438,344.5995 23.75,344.3339 Q23.1563,344.0527 22.5313,344.0527 Q21.1875,344.0527 20.5,345.1308 Q19.8125,346.1933 19.8125,348.287 Q19.8125,350.3808 20.5,351.4589 Q21.1875,352.5214 22.5313,352.5214 Q23.1563,352.5214 23.75,352.2558 Q24.3438,351.9745 24.9688,351.3964 L24.9688,354.1152 Z " fill="#000000"/><text fill="#D9B8FF" font-family="Helvetica" font-size="17" lengthAdjust="spacing" textLength="324" x="41" y="354.3598">azure_sql_server_virtual_network_rule</text></g><!--class microsoft_resource--><g id="elem_microsoft_resource"><rect codeLine="26" fill="#3D176E" height="39.7891" id="microsoft_resource" rx="2.5" ry="2.5" style="stroke:#000D19;stroke-width:0.5;" width="200" x="90" y="167.79"/><ellipse cx="105" cy="187.6845" fill="#ADD1B2" rx="11" ry="11" style="stroke:#181818;stroke-width:1.0;"/><path d="M107.9688,193.3252 Q107.3906,193.622 106.75,193.7627 Q106.1094,193.9189 105.4063,193.9189 Q102.9063,193.9189 101.5781,192.2783 Q100.2656,190.622 100.2656,187.497 Q100.2656,184.372 101.5781,182.7158 Q102.9063,181.0595 105.4063,181.0595 Q106.1094,181.0595 106.75,181.2158 Q107.4063,181.372 107.9688,181.6689 L107.9688,184.3877 Q107.3438,183.8095 106.75,183.5439 Q106.1563,183.2627 105.5313,183.2627 Q104.1875,183.2627 103.5,184.3408 Q102.8125,185.4033 102.8125,187.497 Q102.8125,189.5908 103.5,190.6689 Q104.1875,191.7314 105.5313,191.7314 Q106.1563,191.7314 106.75,191.4658 Q107.3438,191.1845 107.9688,190.6064 L107.9688,193.3252 Z " fill="#000000"/><text fill="#D9B8FF" font-family="Helvetica" font-size="17" lengthAdjust="spacing" textLength="158" x="124" y="193.5698">microsoft_resource</text></g><!--class resource--><g id="elem_resource"><rect codeLine="29" fill="#3D176E" height="39.7891" id="resource" rx="2.5" ry="2.5" style="stroke:#000D19;stroke-width:0.5;" width="113" x="133.5" y="7"/><ellipse cx="148.5" cy="26.8945" fill="#ADD1B2" rx="11" ry="11" style="stroke:#181818;stroke-width:1.0;"/><path d="M151.4688,32.5352 Q150.8906,32.832 150.25,32.9727 Q149.6094,33.1289 148.9063,33.1289 Q146.4063,33.1289 145.0781,31.4883 Q143.7656,29.832 143.7656,26.707 Q143.7656,23.582 145.0781,21.9258 Q146.4063,20.2695 148.9063,20.2695 Q149.6094,20.2695 150.25,20.4258 Q150.9063,20.582 151.4688,20.8789 L151.4688,23.5977 Q150.8438,23.0195 150.25,22.7539 Q149.6563,22.4727 149.0313,22.4727 Q147.6875,22.4727 147,23.5508 Q146.3125,24.6133 146.3125,26.707 Q146.3125,28.8008 147,29.8789 Q147.6875,30.9414 149.0313,30.9414 Q149.6563,30.9414 150.25,30.6758 Q150.8438,30.3945 151.4688,29.8164 L151.4688,32.5352 Z " fill="#000000"/><text fill="#D9B8FF" font-family="Helvetica" font-size="17" lengthAdjust="spacing" textLength="71" x="167.5" y="32.7798">resource</text></g><!--reverse link microsoft_resource to azure_sql_server_virtual_network_rule--><g id="link_microsoft_resource_azure_sql_server_virtual_network_rule"><path codeLine="32" d="M190,225.84 C190,256.36 190,297.69 190,328.25 " fill="none" id="microsoft_resource-backto-azure_sql_server_virtual_network_rule" style="stroke:#FFAF37;stroke-width:2.0;"/><polygon fill="none" points="190,207.84,184,225.84,196,225.84,190,207.84" style="stroke:#FFAF37;stroke-width:2.0;"/></g><!--reverse link resource to microsoft_resource--><g id="link_resource_microsoft_resource"><path codeLine="33" d="M190,65.05 C190,95.57 190,136.9 190,167.46 " fill="none" id="resource-backto-microsoft_resource" style="stroke:#FFAF37;stroke-width:2.0;"/><polygon fill="none" points="190,47.05,184,65.05,196,65.05,190,47.05" style="stroke:#FFAF37;stroke-width:2.0;"/></g><!--SRC=[ZP1FJm913CNl-oacuKm24WKIBx29qGinudrJTZemsTaPRBiGKB-x8cY6NVvuxVkrxxqkh4Q5vL8sgiHoXiG95zOlWQ1K8wAmJeCBf5h6WEdrw-93y78Lc429wX7T2iNcK2TU5pOlF3AhcqWQGrxCALHUxyyBWUTl2Rr4LEg0UIH2TbO9Hc7qS3OmfaxMZxPwkjk_mmOMI2CTa4wdexl3EdBLwcBlFs9gjwYwyTCcGR0His7nGrrCkIEYa8sYl_hPZC-WjVLpTHlDNlQPo2CTpQSBq66zemquZcrOa338PebfenKE1zhqJy9Fv-0atxrEmROYpFZDPOoqGifMbgG2btcKTQ0YeygXUa-IpyD2QNCA78naX1mgoe_Kuza9zlwZtMx_ppMfBJMl9Ly0]--></g></svg>

<svg xmlns="http://www.w3.org/2000/svg" width="380" height="374" viewBox="0 0 380 374"><rect width="366" height="39.789" x="7" y="328.58" fill="#3D176E" rx="2.5" ry="2.5" style="stroke:#000d19;stroke-width:.5"/><circle cx="22" cy="348.474" r="11" fill="#ADD1B2" style="stroke:#181818;stroke-width:1"/><path d="M24.969 354.115q-.578.297-1.219.438-.64.156-1.344.156-2.5 0-3.828-1.64-1.312-1.657-1.312-4.782t1.312-4.781q1.328-1.656 3.828-1.656.703 0 1.344.156.656.156 1.219.453v2.719q-.625-.579-1.219-.844-.594-.281-1.219-.281-1.343 0-2.031 1.078-.687 1.062-.687 3.156t.687 3.172q.688 1.062 2.031 1.062.625 0 1.219-.265.594-.281 1.219-.86z"/><text x="41" y="354.36" fill="#D9B8FF" font-family="Helvetica" font-size="17" textLength="324">azure_sql_server_virtual_network_rule</text><rect width="200" height="39.789" x="90" y="167.79" fill="#3D176E" rx="2.5" ry="2.5" style="stroke:#000d19;stroke-width:.5"/><circle cx="105" cy="187.685" r="11" fill="#ADD1B2" style="stroke:#181818;stroke-width:1"/><path d="M107.969 193.325q-.578.297-1.219.438-.64.156-1.344.156-2.5 0-3.828-1.64-1.312-1.657-1.312-4.782t1.312-4.781q1.328-1.656 3.828-1.656.703 0 1.344.156.656.156 1.219.453v2.719q-.625-.578-1.219-.844-.594-.281-1.219-.281-1.344 0-2.031 1.078-.687 1.062-.687 3.156t.687 3.172q.688 1.062 2.031 1.062.625 0 1.219-.265.594-.281 1.219-.86z"/><text x="124" y="193.57" fill="#D9B8FF" font-family="Helvetica" font-size="17" textLength="158">microsoft_resource</text><rect width="113" height="39.789" x="133.5" y="7" fill="#3D176E" rx="2.5" ry="2.5" style="stroke:#000d19;stroke-width:.5"/><circle cx="148.5" cy="26.895" r="11" fill="#ADD1B2" style="stroke:#181818;stroke-width:1"/><path d="M151.469 32.535q-.578.297-1.219.438-.64.156-1.344.156-2.5 0-3.828-1.64-1.312-1.657-1.312-4.782t1.312-4.781q1.328-1.656 3.828-1.656.703 0 1.344.156.656.156 1.219.453v2.719q-.625-.578-1.219-.844-.594-.281-1.219-.281-1.344 0-2.031 1.078-.687 1.062-.687 3.156t.687 3.172q.688 1.062 2.031 1.062.625 0 1.219-.265.594-.281 1.219-.86z"/><text x="167.5" y="32.78" fill="#D9B8FF" font-family="Helvetica" font-size="17" textLength="71">resource</text><path fill="none" d="M190 225.84v102.41m0-120.41-6 18h12zm0-142.79v102.41m0-120.41-6 18h12z" style="stroke:#ffaf37;stroke-width:2"/></svg>
